icons/svg/numeric-3-box.svg

﻿<?xml version="1.0" encoding="utf-8"?>
<!DOCTYPE svg PUBLIC "-//W3C//DTD SVG 1.1//EN" "http://www.w3.org/Graphics/SVG/1.1/DTD/svg11.dtd">
<svg xmlns="http://www.w3.org/2000/svg" xmlns:xlink="http://www.w3.org/1999/xlink" version="1.1" baseProfile="full" width="24" height="24" viewBox="0 0 24.00 24.00" enable-background="new 0 0 24.00 24.00" xml:space="preserve">
	<path fill="#000000" fill-opacity="1" stroke-linejoin="round" d="M 15.01,10.5C 15.01,11.33 14.34,12 13.51,12C 14.34,12 15.01,12.67 15.01,13.5L 15.01,15C 15.01,16.11 14.11,17 13.01,17L 9.01,17L 9.01,15L 13.01,15L 13.01,13L 11.01,13L 11.01,11L 13.01,11L 13.01,9L 9.01,9L 9.01,7L 13.01,7C 14.11,7 15.01,7.89 15.01,9M 19.01,3L 5.01,3C 3.91,3 3.01,3.9 3.01,5L 3.01,19C 3.01,20.1 3.91,21 5.01,21L 19.01,21C 20.11,21 21.01,20.1 21.01,19L 21.01,5C 21.01,3.9 20.11,3 19.01,3 Z "/>
</svg>

<svg xmlns="http://www.w3.org/2000/svg" version="1.1" baseProfile="full" width="24" height="24" viewBox="0 0 24.00 24.00" xml:space="preserve"><path fill="#000" fill-opacity="1" stroke-linejoin="round" d="M15.01 10.5c0 .83-.67 1.5-1.5 1.5.83 0 1.5.67 1.5 1.5V15c0 1.11-.9 2-2 2h-4v-2h4v-2h-2v-2h2V9h-4V7h4c1.1 0 2 .89 2 2m4-6h-14c-1.1 0-2 .9-2 2v14c0 1.1.9 2 2 2h14c1.1 0 2-.9 2-2V5c0-1.1-.9-2-2-2z"/></svg>
